src/pages/Board/Slider/img/3.svg

<?xml version="1.0" encoding="UTF-8"?>
<svg fill="none" viewBox="0 0 133 134" xmlns="http://www.w3.org/2000/svg">
<g filter="url(#a)">
<circle cx="65.5" cy="65" r="47.5" fill="#fff"/>
</g>
<path d="m87.818 43.539h-47.842c-2.5679 0-4.6495 2.0817-4.6495 4.6495v32.252c0 2.5678 2.0816 4.6495 4.6495 4.6495h47.842c2.5679 0 4.6495-2.0817 4.6495-4.6495v-32.252c0-2.5678-2.0816-4.6495-4.6495-4.6495z" fill="#fff"/>
<path d="m87.824 85.76h-47.849c-1.4096 0-2.7616-0.5595-3.759-1.5557-0.9974-0.9961-1.5587-2.3474-1.5605-3.7571v-32.259c0.0106-1.4076 0.5744-2.7545 1.5697-3.7498 0.9953-0.9954 2.3423-1.5592 3.7498-1.5697h47.849c1.4075 0.0105 2.7544 0.5743 3.7498 1.5697 0.9953 0.9953 1.5591 2.3422 1.5696 3.7498v32.259c-0.0017 1.4097-0.563 2.761-1.5604 3.7571-0.9974 0.9962-2.3494 1.5557-3.759 1.5557zm-47.849-41.538c-1.0522 0.0105-2.0583 0.4331-2.8024 1.1772-0.744 0.744-1.1667 1.7502-1.1771 2.8024v32.245c0.0122 1.051 0.4356 2.0555 1.1795 2.7981 0.7438 0.7426 1.749 1.1643 2.8 1.1748h47.849c1.051-0.0105 2.0562-0.4322 2.8-1.1748 0.7439-0.7426 1.1673-1.7471 1.1795-2.7981v-32.259c-0.0104-1.0522-0.4331-2.0584-1.1771-2.8024-0.7441-0.7441-1.7502-1.1667-2.8024-1.1772l-47.849 0.0134z" fill="#00C65E"/>
<path d="m31.024 85.003h65.107c0.0675 0 0.1322 0.0268 0.18 0.0745 0.0477 0.0478 0.0745 0.1125 0.0745 0.1801v2.1304c0 0.3838-0.1524 0.7519-0.4238 1.0233s-0.6395 0.4238-1.0233 0.4238h-62.722c-0.3838 0-0.7519-0.1524-1.0233-0.4238s-0.4238-0.6395-0.4238-1.0233v-2.117c-0.0018-0.0346 0.0034-0.0691 0.0154-0.1016 0.012-0.0324 0.0304-0.0621 0.0542-0.0872 0.0239-0.0251 0.0526-0.045 0.0843-0.0586 0.0318-0.0137 0.0661-0.0207 0.1007-0.0206z" fill="#1E7836"/>
<rect x="40.666" y="47.166" width="31.11" height="10.372" rx="1" fill="#FFB762"/>
<rect x="40.666" y="59.041" width="31.11" height="10.372" rx="1" fill="#FFB762"/>
<rect x="40.666" y="71.091" width="31.11" height="10.372" rx="1" fill="#FFB762"/>
<rect transform="rotate(-90 76.76 79.26)" x="76.76" y="79.26" width="31.11" height="10.372" rx="1" fill="#CCEFDB"/>
<path d="m90.661 92.095 6.2783-1.374-6.3585-1.389-1.5245-5.4308-1.5244 5.4308-6.3585 1.389 6.2733 1.374 1.6096 5.7217 1.6047-5.7217z" fill="#FD9558"/>
<path d="m41.826 42.504 7.9175-1.7485-8.0156-1.7659-1.9274-6.9018-1.9217 6.9018-8.0213 1.7659 7.9175 1.7485 2.0255 7.2654 2.0255-7.2654z" fill="#FD9558"/>
<path d="m30.486 78.903 2.432-0.6164-2.4655-0.623-0.5963-2.4253-0.5895 2.4253-2.4722 0.623 2.4387 0.6164 0.623 2.5593 0.6298-2.5593z" fill="#00C65E"/>
<defs>
<filter id="a" x="0" y=".5" width="133" height="133" color-interpolation-filters="sRGB" filterUnits="userSpaceOnUse">
<feFlood flood-opacity="0" result="BackgroundImageFix"/>
<feColorMatrix in="SourceAlpha" result="hardAlpha" values="0 0 0 0 0 0 0 0 0 0 0 0 0 0 0 0 0 0 127 0"/>
<feMorphology in="SourceAlpha" operator="dilate" radius="3" result="effect1_dropShadow_5137_19965"/>
<feOffset dx="1" dy="2"/>
<feGaussianBlur stdDeviation="8"/>
<feColorMatrix values="0 0 0 0 0.211765 0 0 0 0 0.227451 0 0 0 0 0.270588 0 0 0 0.08 0"/>
<feBlend in2="BackgroundImageFix" result="effect1_dropShadow_5137_19965"/>
<feBlend in="SourceGraphic" in2="effect1_dropShadow_5137_19965" result="shape"/>
</filter>
</defs>
</svg>

<svg width="133" height="134" viewBox="0 0 133 134" fill="none" xmlns="http://www.w3.org/2000/svg">
<g filter="url(#filter0_d_5137_19965)">
<circle cx="65.5" cy="65" r="47.5" fill="white"/>
</g>
<path d="M87.8176 43.5388H39.9757C37.4078 43.5388 35.3262 45.6205 35.3262 48.1883V80.4403C35.3262 83.0081 37.4078 85.0898 39.9757 85.0898H87.8176C90.3855 85.0898 92.4671 83.0081 92.4671 80.4403V48.1883C92.4671 45.6205 90.3855 43.5388 87.8176 43.5388Z" fill="white"/>
<path d="M87.8244 85.7598H39.9757C38.5661 85.7598 37.2141 85.2003 36.2167 84.2041C35.2193 83.208 34.658 81.8567 34.6562 80.447V48.1884C34.6668 46.7808 35.2306 45.4339 36.2259 44.4386C37.2212 43.4432 38.5682 42.8794 39.9757 42.8689H87.8244C89.2319 42.8794 90.5788 43.4432 91.5742 44.4386C92.5695 45.4339 93.1333 46.7808 93.1438 48.1884V80.447C93.1421 81.8567 92.5808 83.208 91.5834 84.2041C90.586 85.2003 89.234 85.7598 87.8244 85.7598ZM39.9757 44.2222C38.9235 44.2327 37.9174 44.6553 37.1733 45.3994C36.4293 46.1434 36.0066 47.1496 35.9962 48.2018V80.447C36.0084 81.498 36.4318 82.5025 37.1757 83.2451C37.9195 83.9877 38.9247 84.4094 39.9757 84.4199H87.8244C88.8754 84.4094 89.8806 83.9877 90.6244 83.2451C91.3683 82.5025 91.7917 81.498 91.8039 80.447V48.1884C91.7935 47.1362 91.3708 46.13 90.6268 45.386C89.8827 44.6419 88.8766 44.2193 87.8244 44.2088L39.9757 44.2222Z" fill="#00C65E"/>
<path d="M31.0245 85.0032H96.1313C96.1988 85.0032 96.2635 85.03 96.3113 85.0777C96.359 85.1255 96.3858 85.1902 96.3858 85.2578V87.3882C96.3858 87.772 96.2334 88.1401 95.962 88.4115C95.6906 88.6829 95.3225 88.8353 94.9387 88.8353H32.217C31.8332 88.8353 31.4651 88.6829 31.1937 88.4115C30.9223 88.1401 30.7699 87.772 30.7699 87.3882V85.2712C30.7681 85.2366 30.7733 85.2021 30.7853 85.1696C30.7973 85.1372 30.8157 85.1075 30.8395 85.0824C30.8634 85.0573 30.8921 85.0374 30.9238 85.0238C30.9556 85.0101 30.9899 85.0031 31.0245 85.0032Z" fill="#1E7836"/>
<rect x="40.666" y="47.1658" width="31.1101" height="10.3721" rx="1" fill="#FFB762"/>
<rect x="40.666" y="59.0408" width="31.1101" height="10.3721" rx="1" fill="#FFB762"/>
<rect x="40.666" y="71.0906" width="31.1101" height="10.3721" rx="1" fill="#FFB762"/>
<rect x="76.7598" y="79.2605" width="31.1101" height="10.3721" rx="1" transform="rotate(-90 76.7598 79.2605)" fill="#CCEFDB"/>
<path d="M90.6614 92.0949L96.9397 90.7209L90.5812 89.3319L89.0567 83.9011L87.5323 89.3319L81.1738 90.7209L87.4471 92.0949L89.0567 97.8166L90.6614 92.0949Z" fill="#FD9558"/>
<path d="M41.8259 42.5038L49.7434 40.7553L41.7278 38.9894L39.8004 32.0876L37.8787 38.9894L29.8574 40.7553L37.7749 42.5038L39.8004 49.7692L41.8259 42.5038Z" fill="#FD9558"/>
<path d="M30.4864 78.9032L32.9184 78.2868L30.4529 77.6638L29.8566 75.2385L29.2671 77.6638L26.7949 78.2868L29.2336 78.9032L29.8566 81.4625L30.4864 78.9032Z" fill="#00C65E"/>
<defs>
<filter id="filter0_d_5137_19965" x="0" y="0.5" width="133" height="133" filterUnits="userSpaceOnUse" color-interpolation-filters="sRGB">
<feFlood flood-opacity="0" result="BackgroundImageFix"/>
<feColorMatrix in="SourceAlpha" type="matrix" values="0 0 0 0 0 0 0 0 0 0 0 0 0 0 0 0 0 0 127 0" result="hardAlpha"/>
<feMorphology radius="3" operator="dilate" in="SourceAlpha" result="effect1_dropShadow_5137_19965"/>
<feOffset dx="1" dy="2"/>
<feGaussianBlur stdDeviation="8"/>
<feColorMatrix type="matrix" values="0 0 0 0 0.211765 0 0 0 0 0.227451 0 0 0 0 0.270588 0 0 0 0.08 0"/>
<feBlend mode="normal" in2="BackgroundImageFix" result="effect1_dropShadow_5137_19965"/>
<feBlend mode="normal" in="SourceGraphic" in2="effect1_dropShadow_5137_19965" result="shape"/>
</filter>
</defs>
</svg>
